!!!COM: Palestrina, Giovanni Perluigi da
!!!OPR: Nigra sum
!!!OTL: Benedictus
**kern	**kern	**kern	**kern
*Itenor	*Itenor	*Icalto	*Icant
!Tenor 2	!Tenor 1	!Altus	!Cantus
*clefGv2	*clefGv2	*clefG2	*clefG2
*k[b-]	*k[b-]	*k[b-]	*k[b-]
*D:aeo	*D:aeo	*D:aeo	*D:aeo
*M4/2	*M4/2	*M4/2	*M4/2
=1	=1	=1	=1
0r	0r	0g	1r
.	.	.	[1dd
=2	=2	=2	=2
0r	0r	1g	1dd]
.	.	[1f	1dd
=3	=3	=3	=3
0r	0r	2f]	1.cc
.	.	2c	.
.	.	[1e-	.
.	.	.	2g
=4	=4	=4	=4
0g	0r	2e-]	2.b-
.	.	4d	.
.	.	4c	4cc
.	.	2B-	2dd
.	.	2c	2ee-
=5	=5	=5	=5
1g	0r	4G	2.dd
.	.	4A	.
.	.	4B-	.
.	.	4c	8cc
.	.	.	8b-
[1f	.	4d	2.a
.	.	4c	.
.	.	4d	.
.	.	4e	4g
=6	=6	=6	=6
2f]	0r	4f	4a
.	.	4g	4b-
2c	.	2.a	2.cc
1e-	.	.	.
.	.	4g	4b-
.	.	[2g	4b-
.	.	.	8a
.	.	.	8g
=7	=7	=7	=7
1d	1r	2g]	1a
.	.	2f	.
1G	[1d	1b-	4g
.	.	.	4a
.	.	.	4b-
.	.	.	4cc
=8	=8	=8	=8
0r	1d]	2a	4dd
.	.	.	4ee
.	.	4d	2ff
.	.	4e	.
.	1d	4f	2dd
.	.	4g	.
.	.	4a	[2ff
.	.	4b-	.
=9	=9	=9	=9
0r	1.c	1cc	2ff]
.	.	.	4ee
.	.	.	4dd
.	.	2g	2ee
.	2G	[2b-	[2dd
=10	=10	=10	=10
0r	2.B-	4b-]	4dd]
.	.	4a	4cc
.	.	2g	2b-
.	4c	.	.
.	2d	2f#	2a
.	2e-	[2g	2g
=11	=11	=11	=11
1r	1d	2g]	0a
.	.	4f	.
.	.	4e	.
[1d	2r	2.f	.
.	4d	.	.
.	4e	4g	.
=12	=12	=12	=12
1d]	4f	2a	1r
.	4g	.	.
.	2.a	4d	.
.	.	4e	.
1d	.	4f	2r
.	4g	4g	.
.	[2f	4a	4a
.	.	4f	4b
=13	=13	=13	=13
1.c	2f]	1g	4cc
.	.	.	4dd
.	4e	.	4ee
.	4d	.	4ff
.	2e	2g	1gg
2G	[2d	2b-	.
=14	=14	=14	=14
2.B-	4d]	2b-	2.ff
.	4c	.	.
.	4d	2b-	.
4c	4e	.	4ee
2d	2f	2a	2dd
2e-	[2g	2g	2cc
=15	=15	=15	=15
1d	2g]	1a	1dd
.	2f#	.	.
[1G	1g	2b-	2r
.	.	2g	2b-
=16	=16	=16	=16
1G]	2r	2g	2b-
.	2g	2g	2b-
2r	2f	2d	2a
2d	2d	2a	2ff
=17	=17	=17	=17
2d	1a	2f	2dd
2d	.	1a	1ff
[1A	1r	.	.
.	.	4g	4ee
.	.	4f	4dd
=18	=18	=18	=18
1A]	1r	1e	4cc
.	.	.	4dd
.	.	.	4ee
.	.	.	4cc
1f	1d	2r	1dd
.	.	2a	.
=19	=19	=19	=19
2d	2d	2f	1r
1f	2d	1a	.
.	[1A	.	1a
4e	.	4g	.
4d	.	4f	.
=20	=20	=20	=20
4c	1A]	2e	2a
4d	.	.	.
4e	.	2a	2a
4c	.	.	.
1d	2r	2a	2f
.	2d	2a	2ff
=21	=21	=21	=21
0r	2B-	2b-	2dd
.	1d	2a	1ff
.	.	2f	.
.	4c	[2a	4ee
.	4B-	.	4dd
=22	=22	=22	=22
1a	0A	2a]	2cc#
.	.	4g	1dd
.	.	4f	.
2a	.	1e	.
2a	.	.	2cc#
=23	=23	=23	=23
1f#	2r	1d	2dd
.	2d	.	2a
1r	2d	2f#	2a
.	2d	2f#	2a
=24	=24	=24	=24
2r	0G	2g	2b-
2g	.	2b-	2dd
2g	.	2g	2b-
2g	.	[2b-	[2dd
=25	=25	=25	=25
0d	0r	2b-]	2dd]
.	.	4a	4cc
.	.	4g	4b-
.	.	4f#	4a
.	.	2g	4g
.	.	.	2a
.	.	4f#	.
=26	=26	=26	=26
1e-	1c	0g	2g
.	.	.	1ee-
2c	2c	.	.
[2e-	2c	.	4dd
.	.	.	4cc
=27	=27	=27	=27
2e-]	1G	2r	2.b-
4d	.	2g	.
4c	.	.	4cc
2B-	2r	2g	2dd
2c	2g	2g	2ee-
=28	=28	=28	=28
1G	2g	1.b-	2dd
.	2g	.	2dd
1r	1d	.	2dd
.	.	4a	2dd
.	.	4g	.
=29	=29	=29	=29
1d	2r	2f	[0a
.	2f	2a	.
2d	2d	2f	.
2d	[2f	[2a	.
=30	=30	=30	=30
0A	2f]	2a]	0a]
.	4e	4g	.
.	4d	4f	.
.	4c#	4e	.
.	2d	4d	.
.	.	2e	.
.	4c#	.	.
=31	=31	=31	=31
1B-	0d	2d	2r
.	.	1b-	2dd
2G	.	.	2b-
[2B-	.	4a	[2dd
.	.	4g	.
=32	=32	=32	=32
2B-]	0r	2.f	2dd]
4A	.	.	1cc
4G	.	4g	.
2F	.	2a	.
2G	.	[2g	2b-
=33	=33	=33	=33
1d	1r	2g]	1a
.	.	2f#	.
1G	2r	2g	1g
.	2g	2b-	.
=34	=34	=34	=34
2r	2g	2b-	1dd
2g	2g	2b-	.
2g	1d	1a	2dd
2f#	.	.	2dd
=35	=35	=35	=35
1g	2r	2r	2b-
.	2g	2b-	2dd
1r	2g	2g	2b-
.	2g	[2b-	[2dd
=36	=36	=36	=36
1r	1.d	2b-]	2dd]
.	.	4a	4cc
.	.	4g	4b-
1d	.	2.f	2a
.	2a	.	2ff
.	.	4g	.
=37	=37	=37	=37
2d	2f	1a	2dd
2d	1a	.	1ff
[1A	.	1r	.
.	4g	.	4ee
.	4f	.	4dd
=38	=38	=38	=38
0A]	2e	1a	2cc#
.	2f	.	1dd
.	1e	2a	.
.	.	2a	2cc#
=39	=39	=39	=39
2r	1d	2f	0dd
2.G	.	2b-	.
.	2r	2g	.
4F	.	.	.
4G	4d	[2b-	.
4A	4c	.	.
=40	=40	=40	=40
4B-	4d	2b-]	[0dd
4c	4e	.	.
2.d	4f	4a	.
.	4g	4g	.
.	2a	1f	.
4c	.	.	.
4B-	4d	.	.
4A	8e	.	.
.	8f	.	.
=41	=41	=41	=41
1G	1.g	1.b-	1dd]
1G	.	.	1dd
.	2g	2b-	.
=42	=42	=42	=42
0d	0f#	0a	0dd
==	==	==	==
*-	*-	*-	*-
!!!CDT: 1525/^1526/-1594/2/2
!!!OCY: Italia
!!!AGN: Mass (Parody)
!!!AST: renaissance, vocal
!!!ASW: Motet 1532 (Lhéritier)
!!!PWK: Masses, Book 5
!!!RNB: Cadence finals: G,A
!!!YOR: Le Opere Complete, v. 15, p. 89
!!!YOO: Rome, Italy: Fratelli Scalera
!!!END: 1992//
!!!EED: John Miller
!!!YEC: Copyright 2000, John Miller
!!!YEN: United States of America
!!!YEM: Rights to all derivative electronic formats reserved.
!!!YEM: Refer to licensing agreement for further details.
!!!YEM: This file must be accompanied by the licensing agreement.
!!!YEM: A copy of the licensing agreement may be found at http://www.music-cog.ohio-state.edu/HumdrumDatabases/Palestrina/license.txt
!!!EMD: converted to Humdrum by Bret Aarden
